X:1
T:He Is Not Far Away
T:He Is Not Far Away
T:Winifred Chase
T:R. A. Chase, 1909
T:Public Domain Courtesy of the Cyber Hymnal™
T:Public Domain Courtesy of the Cyber Hymnal™
C:Winifred Chase
Z:Public Domain
Z:Courtesy of the Cyber Hymnal™
%%score ( 1 2 ) ( 3 4 )
L:1/8
Q:1/4=108
M:3/4
K:G
V:1 treble 
V:2 treble 
V:3 bass 
V:4 bass 
V:1
 [DB]2 [DB]2 [DB]2 | [Dd]4 [Ec]2 | [DB]3 [CA] [B,G][DA] | [DB]4 [B,D]2 | [CE]4 [DF]2 | %5
w: 1.~He is not|far from|ev- ery one of|us, His|power and|
w: 2.~He is not|far from|ev- ery one of|us, Our|bo- dies|
w: 3.~He is not|far from|ev- ery one of|us, He|near- er|
 [DG]4 [DB]2 | [^CA]3 [CE] [CF][CG] | [DA]6 | [DB]2 [DB]2 [DB]2 | [Dd]4 [GB]2 | %10
w: wis- dom|shine from peak and|plain.|The vault- ed|heav’ns out-|
w: tem- ples|are our souls that|praise;|De- clare His|pre- sence|
w: is than|breath or feet or|hands;|He dear- er|is than|
 [^Ge]3 [Gd] [Gc][GB] | [Ac]4 [EA]2 | [DG]3 [DG] [GA][GA] | (Bd [Fc]2) B2 | [FB]4 [DA]2 | [DG]6 || %16
w: stretch a star- lit|fane, Where|hearts, where praise- ful|hearts * * may|wor- ship|Him.|
w: all our var- ied|ways, Where|wan- dering, stri- ving,|we * * may|fol- low|Him.|
w: friend or home or|lands, The|spir- it’s fount of|joy, * * our|soul’s deep|spring.|
"^Refrain" [EB]2 [CA]2 [DB]2 | [B,G]4 [B,D]2 | [CE][DF] [EG]2 [_EA]2 | [DB]4 [DB]2 | d4 [E^c]2 | %21
w: |||||
w: Oh! praise His|name since|He is near to-|day, Let|whis- pered|
w: |||||
 c4 [DB]2 | [^CA]3 [CE] [CF][CG] | [CA]4 [CD]2 | [CE][CF] [DG]2 [FA]2 | [GB]4 [=FB]2 | %26
w: |||||
w: praise de-|clare love’s ho- ly|fear; Let|dai- ly ser- vice|speak the|
w: |||||
 [Ed]4 [Ec]2 | [CE]4 [CE]2 | [EG][EG] [EG]2 [EG]2 | [DG][DG] [^CG]2 [CG]2 | [Dd][Gd] [Fd]2 B2 | %31
w: |||||
w: heart’s full|cheer, The|Lord is ours, the|Lord is ours, He|is not far a-|
w: |||||
 [DG]6 |] %32
w: |
w: way.|
w: |
V:2
 x6 | x6 | x6 | x6 | x6 | x6 | x6 | x6 | x6 | x6 | x6 | x6 | x6 | G2 x (D G) x | x6 | x6 || x6 | %17
 x6 | x6 | x6 | (DD D2) x2 | (EE F2) x2 | x6 | x6 | x6 | x6 | x6 | x6 | x6 | x6 | x4 (FD) | x6 |] %32
V:3
 [G,,G,]2 [G,,G,]2 [G,,G,]2 | [B,,G,]4 [C,G,]2 | [D,G,]3 [D,F,] [E,G,][D,F,] | G,4 [G,,G,]2 | %4
w: ~ ~ ~|~ ~|~ ~ ~ ~|~ ~|
 [C,G,]4 [C,A,]2 | [B,,G,]4 [G,,G,]2 | [A,,G,]3 [G,A,] [F,A,][E,A,] | [D,F,]6 | G,2 G,2 G,2 | %9
w: ~ ~|~ ~|~ ~ ~ ~|~|~ ~ ~|
 [G,B,]4 D2 | [E,B,]3 [E,E] [E,E][E,E] | [A,E]4 [C,C]2 | [B,,D]3 [B,,D] [C,E][E,E] | %13
w: ~ ~|~ ~ ~ ~|~ ~|~ ~ ~ ~|
 (DB, A,2) (G,B,) | [D,D]4 [D,C]2 | [G,,B,]6 || z4 [D,F,]2 | [G,,G,][G,,D,] [G,,D,]2 [G,,G,]2 | %18
w: ~ * * ~ *|~ ~|~|~|~ ~ ~ ~|
 [C,G,][C,G,] [C,G,]2 [C,G,]2 | [G,,G,]4 [G,,G,]2 | [B,,G,][B,,G,] [B,,G,]2 [_B,,G,]2 | %21
w: ~ ~ ~ ~|~ Let|whis- pered praise, let|
 [A,,A,][A,,A,] [D,A,]2 [G,,G,]2 | [A,,G,]3 [G,A,] [F,A,][E,A,] | [D,F,]4 [D,F,]2 | %24
w: whis- pered praise *|||
 [D,G,][D,A,] [D,B,]2 [D,D]2 | [G,D]4 (DG,) | [C,G,]4 [C,G,]2 | [C,G,]4 (G,A,) | %28
w: ||||
 [^C,^B,][C,A,] [C,A,]2 [C,A,]2 | [D,B,][D,B,] [_E,^A,]2 [E,A,]2 | [D,B,][D,B,] [D,A,]2 [D,C]2 | %31
w: |||
 [G,,B,]6 |] %32
w: |
V:4
 x6 | x6 | x6 | G,4 x2 | x6 | x6 | x6 | x6 | G,2 G,2 G,2 | x4 (G,=F,) | x6 | x6 | x6 | D,4 D,2 | %14
 x6 | x6 || x6 | x6 | x6 | x6 | x6 | x6 | x6 | x6 | x6 | x4 G,2 | x6 | x4 C,2 | x6 | x6 | x6 | %31
 x6 |] %32

